src/assets/bg_delegate_btn.svg

<svg width="264" height="68" viewBox="0 0 264 68" fill="none" xmlns="http://www.w3.org/2000/svg">
<path d="M1.17 9.76295C1.7318 6.15309 3.70812 2.0036 7.35126 1.73113C18.32 0.910763 49.1123 -0.00720215 132 -0.00720215C214.307 -0.00720215 245.246 0.897946 256.415 1.71387C260.141 1.98601 262.372 6.29307 262.939 9.9851C263.815 15.6953 264.549 24.811 263.439 36.9928C262.547 46.7793 260.862 53.3997 259.266 57.7342C257.857 61.5601 251.509 65.8975 247.442 66.1815C235.441 67.0194 205.651 67.9928 132 67.9928C56.4419 67.9928 27.045 66.9683 15.6611 66.1167C11.8697 65.8331 6.61468 61.9996 5.23454 58.4569C3.50182 54.0092 1.54693 47.0725 0.561286 36.9928C-0.594356 25.1746 0.248674 15.6829 1.17 9.76295Z" fill="url(#paint0_linear_2001_13781)"/>
<path d="M2.15703 9.47723C2.3581 5.96652 3.78308 2.02954 7.28894 1.7567C17.912 0.929962 48.3929 -0.00720215 132 -0.00720215C214.838 -0.00720215 245.523 0.912804 256.413 1.73386C260.032 2.00675 261.713 6.16258 261.889 9.78808C262.109 14.3205 262.072 21.4266 261.11 31.9928C259.762 46.8225 257.049 54.8365 255.424 58.4851C254.692 60.1287 253.091 61.0573 251.294 61.1472C241.922 61.6164 207.952 62.9928 132 62.9928C56.9366 62.9928 22.8785 61.6484 13.0449 61.1641C11.061 61.0664 9.30744 59.9615 8.55939 58.1215C6.93246 54.1197 4.23361 45.7637 2.88932 31.9928C1.86509 21.5005 1.8893 14.1518 2.15703 9.47723Z" fill="url(#paint1_linear_2001_13781)"/>
<g style="mix-blend-mode:screen">
<path d="M132 55.9928C155.882 55.9928 226.821 54.0879 244 53.9928C244 53.9928 253.5 57.9928 132 57.9928C10.4999 57.9928 19.9999 53.9928 19.9999 53.9928C37.1786 54.0879 108.118 55.9928 132 55.9928Z" fill="url(#paint2_linear_2001_13781)"/>
</g>
<g style="mix-blend-mode:screen">
<path d="M4.41243 8.94952C4.54835 6.06525 6.85864 3.86314 9.74197 3.70872C23.712 2.96051 66.6631 0.992798 132 0.992798C197.365 0.992798 240.325 2.96218 254.276 3.70967C257.151 3.8637 259.457 6.0553 259.592 8.93113C259.889 15.2305 259.888 27.002 257.22 40.9928C258.588 26.6491 257.152 16.5042 256.104 11.5141C255.645 9.32643 253.853 7.79139 251.63 7.55557C241.849 6.51789 210.03 3.9928 132 3.9928C54.1031 3.9928 22.2601 6.50929 12.4203 7.55025C10.1714 7.78816 8.36225 9.35479 7.90577 11.5697C6.85728 16.657 5.40817 26.9472 6.78009 40.9928C4.09909 27.2688 4.11138 15.3376 4.41243 8.94952Z" fill="url(#paint3_linear_2001_13781)"/>
</g>
<path d="M9.24036 12.6648C9.44998 10.9219 10.8596 9.96201 12.6142 9.90722C28.2948 9.41756 107.196 6.9928 132 6.9928C157.701 6.9928 241.481 9.59604 252.833 9.95253C253.699 9.97973 254.409 10.3467 254.593 11.1937C255.024 13.1757 255.407 18.3859 254.111 31.9928C252.481 49.0904 248.862 52.9305 247.573 53.7673C247.282 53.9562 246.986 53.9957 246.639 54.0039C239.907 54.1637 162.177 55.9928 132 55.9928C102.756 55.9928 28.8535 54.275 18.185 54.0234C17.3027 54.0026 16.4801 53.7687 15.9042 53.0999C14.3421 51.2857 11.3339 46.0674 9.88943 31.9928C8.76672 21.053 8.90372 15.4638 9.24036 12.6648Z" fill="url(#paint4_linear_2001_13781)"/>
<mask id="mask0_2001_13781" style="mask-type:alpha" maskUnits="userSpaceOnUse" x="9" y="6" width="246" height="50">
<path d="M9.23542 13.0317C9.45279 11.0869 11.0233 9.89117 12.9752 9.75154C22.9372 9.03889 57.9752 6.9928 131.889 6.9928C205.266 6.9928 240.329 9.00927 250.581 9.7358C252.651 9.88247 254.328 11.1865 254.548 13.2497C254.877 16.3243 254.999 22.0021 253.889 31.9928C252.497 44.5164 249.654 50.263 248.052 52.6004C247.38 53.5807 246.265 54.0443 245.079 54.1189C238.105 54.558 209.388 55.9928 131.889 55.9928C53.5457 55.9928 25.053 54.5266 18.4788 54.105C17.4232 54.0373 16.4349 53.6578 15.8062 52.8072C14.2211 50.6629 11.304 45.0827 9.88889 31.9928C8.7722 21.6635 8.9025 16.0103 9.23542 13.0317Z" fill="url(#paint5_linear_2001_13781)"/>
</mask>
<g mask="url(#mask0_2001_13781)">
<g filter="url(#filter0_f_2001_13781)">
<ellipse cx="134" cy="56.4928" rx="114" ry="11.5" fill="#01A406"/>
</g>
</g>
<g style="mix-blend-mode:screen" opacity="0.66">
<path d="M13.2106 15.189C13.3797 14.2195 14.4166 13.9474 15.398 13.8742C22.8562 13.3176 58.4157 10.9928 132 10.9928C208.577 10.9928 243.973 13.5106 249.373 13.933C249.875 13.9723 250.316 14.1679 250.481 14.6441C250.944 15.9855 251.52 20.023 250.111 31.9928C248.484 45.8075 244.876 49.7167 243.581 50.6966C243.284 50.9209 242.919 51.0117 242.548 51.0422C238.811 51.35 214.978 52.9928 132 52.9928C47.6192 52.9928 24.4006 51.294 21.2793 51.0277C21.0113 51.0049 20.7567 51.0096 20.4983 50.9351C19.2773 50.5834 15.55 48.173 13.8894 31.9928C12.8005 21.3818 12.8966 16.9889 13.2106 15.189Z" fill="url(#paint6_linear_2001_13781)"/>
</g>
<g style="mix-blend-mode:screen" opacity="0.47" filter="url(#filter1_f_2001_13781)">
<ellipse cx="132" cy="18.4928" rx="115" ry="6.5" fill="#77FF7B"/>
</g>
<defs>
<filter id="filter0_f_2001_13781" x="12.5" y="37.4928" width="243" height="38" filterUnits="userSpaceOnUse" color-interpolation-filters="sRGB">
<feFlood flood-opacity="0" result="BackgroundImageFix"/>
<feBlend mode="normal" in="SourceGraphic" in2="BackgroundImageFix" result="shape"/>
<feGaussianBlur stdDeviation="3.75" result="effect1_foregroundBlur_2001_13781"/>
</filter>
<filter id="filter1_f_2001_13781" x="9.5" y="4.4928" width="245" height="28" filterUnits="userSpaceOnUse" color-interpolation-filters="sRGB">
<feFlood flood-opacity="0" result="BackgroundImageFix"/>
<feBlend mode="normal" in="SourceGraphic" in2="BackgroundImageFix" result="shape"/>
<feGaussianBlur stdDeviation="3.75" result="effect1_foregroundBlur_2001_13781"/>
</filter>
<linearGradient id="paint0_linear_2001_13781" x1="132" y1="-0.00720215" x2="132" y2="82.9928" gradientUnits="userSpaceOnUse">
<stop stop-color="#FDC00F"/>
<stop offset="1" stop-color="#955C1A"/>
</linearGradient>
<linearGradient id="paint1_linear_2001_13781" x1="132" y1="-0.00720215" x2="132" y2="82.9928" gradientUnits="userSpaceOnUse">
<stop stop-color="#FDC00F"/>
<stop offset="1" stop-color="#E9BA02"/>
</linearGradient>
<linearGradient id="paint2_linear_2001_13781" x1="132" y1="-20.0072" x2="132" y2="62.9927" gradientUnits="userSpaceOnUse">
<stop stop-color="#FDC00F"/>
<stop offset="1" stop-color="#E9BA02"/>
</linearGradient>
<linearGradient id="paint3_linear_2001_13781" x1="132" y1="-0.00720195" x2="132" y2="82.9928" gradientUnits="userSpaceOnUse">
<stop stop-color="#FFD866"/>
<stop offset="1" stop-color="#FFD73B"/>
</linearGradient>
<linearGradient id="paint4_linear_2001_13781" x1="132" y1="4.9928" x2="132" y2="77.9928" gradientUnits="userSpaceOnUse">
<stop stop-color="#004A02"/>
<stop offset="1" stop-color="#008C05"/>
</linearGradient>
<linearGradient id="paint5_linear_2001_13781" x1="131.889" y1="4.9928" x2="131.889" y2="77.9928" gradientUnits="userSpaceOnUse">
<stop stop-color="#006403"/>
<stop offset="1" stop-color="#009A05"/>
</linearGradient>
<linearGradient id="paint6_linear_2001_13781" x1="132" y1="4.9928" x2="132" y2="77.9928" gradientUnits="userSpaceOnUse">
<stop stop-color="#009A05"/>
<stop offset="0.485" stop-color="#006403" stop-opacity="0"/>
</linearGradient>
</defs>
</svg>

<svg width="264" height="68" fill="none" xmlns="http://www.w3.org/2000/svg"><path d="M1.17 9.763c.562-3.61 2.538-7.76 6.181-8.032C18.32.911 49.112-.007 132-.007c82.307 0 113.246.905 124.415 1.72 3.726.273 5.957 4.58 6.524 8.272.876 5.71 1.61 14.826.5 27.008-.892 9.786-2.577 16.407-4.173 20.741-1.409 3.826-7.757 8.163-11.824 8.447-12.001.838-41.791 1.812-115.442 1.812-75.558 0-104.955-1.025-116.339-1.876-3.791-.284-9.046-4.117-10.426-7.66C3.502 54.009 1.547 47.072.56 36.993-.594 25.175.25 15.683 1.17 9.763z" fill="url(#a)"/><path d="M2.157 9.477c.201-3.51 1.626-7.447 5.132-7.72C17.912.93 48.393-.007 132-.007c82.838 0 113.523.92 124.413 1.74 3.619.274 5.3 4.43 5.476 8.055.22 4.532.183 11.639-.779 22.205-1.348 14.83-4.061 22.844-5.686 26.492-.732 1.644-2.333 2.572-4.13 2.662-9.372.47-43.342 1.846-119.294 1.846-75.063 0-109.121-1.345-118.955-1.829-1.984-.098-3.738-1.203-4.486-3.043-1.627-4.001-4.325-12.357-5.67-26.128-1.024-10.492-1-17.841-.732-22.516z" fill="url(#b)"/><path d="M132 55.993c23.882 0 94.821-1.905 112-2 0 0 9.5 4-112 4s-112-4-112-4c17.179.095 88.118 2 112 2z" fill="url(#c)" style="mix-blend-mode:screen"/><path d="M4.412 8.95c.136-2.885 2.447-5.087 5.33-5.241C23.712 2.96 66.663.993 132 .993c65.365 0 108.325 1.97 122.276 2.717 2.875.154 5.181 2.345 5.316 5.221.297 6.3.296 18.071-2.372 32.062 1.368-14.344-.068-24.489-1.116-29.479-.459-2.188-2.251-3.723-4.474-3.958-9.781-1.038-41.6-3.563-119.63-3.563-77.897 0-109.74 2.516-119.58 3.557-2.249.238-4.058 1.805-4.514 4.02-1.049 5.087-2.498 15.377-1.126 29.423C4.1 27.269 4.111 15.338 4.412 8.95z" fill="url(#d)" style="mix-blend-mode:screen"/><path d="M9.24 12.665c.21-1.743 1.62-2.703 3.374-2.758 15.68-.49 94.582-2.914 119.386-2.914 25.701 0 109.481 2.603 120.833 2.96.866.027 1.576.394 1.76 1.24.431 1.983.814 7.193-.482 20.8-1.63 17.097-5.249 20.938-6.538 21.774-.291.19-.587.229-.934.237-6.732.16-84.462 1.989-114.639 1.989-29.244 0-103.147-1.718-113.815-1.97-.882-.02-1.705-.254-2.28-.923-1.563-1.814-4.571-7.033-6.016-21.107-1.122-10.94-.985-16.53-.649-19.328z" fill="url(#e)"/><mask id="g" style="mask-type:alpha" maskUnits="userSpaceOnUse" x="9" y="6" width="246" height="50"><path d="M9.235 13.032c.218-1.945 1.788-3.14 3.74-3.28 9.962-.713 45-2.76 118.914-2.76 73.377 0 108.44 2.017 118.692 2.744 2.07.146 3.747 1.45 3.967 3.514.329 3.074.451 8.752-.659 18.743-1.392 12.523-4.235 18.27-5.837 20.607-.672.98-1.787 1.444-2.973 1.519-6.974.439-35.691 1.874-113.19 1.874-78.343 0-106.836-1.466-113.41-1.888-1.056-.068-2.044-.447-2.673-1.298-1.585-2.144-4.502-7.724-5.917-20.814-1.117-10.33-.986-15.983-.654-18.961z" fill="url(#f)"/></mask><g filter="url(#h)" mask="url(#g)"><ellipse cx="134" cy="56.493" rx="114" ry="11.5" fill="#01A406"/></g><path d="M13.21 15.189c.17-.97 1.207-1.242 2.188-1.315 7.458-.556 43.018-2.881 116.602-2.881 76.577 0 111.973 2.518 117.373 2.94.502.04.943.235 1.108.711.463 1.341 1.039 5.379-.37 17.349-1.627 13.814-5.235 17.724-6.53 18.704-.297.224-.662.315-1.033.345-3.737.308-27.57 1.95-110.548 1.95-84.38 0-107.6-1.698-110.72-1.964-.269-.023-.523-.018-.782-.093-1.22-.352-4.948-2.762-6.609-18.942-1.088-10.611-.992-15.004-.678-16.804z" fill="url(#i)" style="mix-blend-mode:screen" opacity=".66"/><g style="mix-blend-mode:screen" opacity=".47" filter="url(#j)"><ellipse cx="132" cy="18.493" rx="115" ry="6.5" fill="#77FF7B"/></g><defs><linearGradient id="a" x1="132" y1="-.007" x2="132" y2="82.993" gradientUnits="userSpaceOnUse"><stop stop-color="#FDC00F"/><stop offset="1" stop-color="#955C1A"/></linearGradient><linearGradient id="b" x1="132" y1="-.007" x2="132" y2="82.993" gradientUnits="userSpaceOnUse"><stop stop-color="#FDC00F"/><stop offset="1" stop-color="#E9BA02"/></linearGradient><linearGradient id="c" x1="132" y1="-20.007" x2="132" y2="62.993" gradientUnits="userSpaceOnUse"><stop stop-color="#FDC00F"/><stop offset="1" stop-color="#E9BA02"/></linearGradient><linearGradient id="d" x1="132" y1="-.007" x2="132" y2="82.993" gradientUnits="userSpaceOnUse"><stop stop-color="#FFD866"/><stop offset="1" stop-color="#FFD73B"/></linearGradient><linearGradient id="e" x1="132" y1="4.993" x2="132" y2="77.993" gradientUnits="userSpaceOnUse"><stop stop-color="#004A02"/><stop offset="1" stop-color="#008C05"/></linearGradient><linearGradient id="f" x1="131.889" y1="4.993" x2="131.889" y2="77.993" gradientUnits="userSpaceOnUse"><stop stop-color="#006403"/><stop offset="1" stop-color="#009A05"/></linearGradient><linearGradient id="i" x1="132" y1="4.993" x2="132" y2="77.993" gradientUnits="userSpaceOnUse"><stop stop-color="#009A05"/><stop offset=".485" stop-color="#006403" stop-opacity="0"/></linearGradient><filter id="h" x="12.5" y="37.493" width="243" height="38" filterUnits="userSpaceOnUse" color-interpolation-filters="sRGB"><feFlood flood-opacity="0" result="BackgroundImageFix"/><feBlend in="SourceGraphic" in2="BackgroundImageFix" result="shape"/><feGaussianBlur stdDeviation="3.75" result="effect1_foregroundBlur_2001_13781"/></filter><filter id="j" x="9.5" y="4.493" width="245" height="28" filterUnits="userSpaceOnUse" color-interpolation-filters="sRGB"><feFlood flood-opacity="0" result="BackgroundImageFix"/><feBlend in="SourceGraphic" in2="BackgroundImageFix" result="shape"/><feGaussianBlur stdDeviation="3.75" result="effect1_foregroundBlur_2001_13781"/></filter></defs></svg>
